review/refactor-update-stylelint/icons/illustrative/station/db_ic_il_db_video_travel_center.svg

<svg id="icon" height="64" viewBox="0 0 64 64" width="64" xmlns="http://www.w3.org/2000/svg"><g fill="none" fill-rule="evenodd" transform="translate(4 7)"><path d="m22 33a8 8 0 0 1 7.994 7.698l.006.302v9a1 1 0 0 1 -1.993.117l-.007-.117v-9a6 6 0 0 0 -5.442-5.974l-.297-.02-.122.072a14.764 14.764 0 0 1 -6.705 1.91l-.444.012a14.752 14.752 0 0 1 -7.129-1.922l-.123-.072-.186.01a6 6 0 0 0 -5.548 5.76l-.004.224v9a1 1 0 0 1 -1.993.117l-.007-.117v-9a8 8 0 0 1 8-8 1 1 0 0 1 .52.145 12.736 12.736 0 0 0 6.47 1.855 12.752 12.752 0 0 0 6.49-1.855 1 1 0 0 1 .52-.145zm30.5-31a3.5 3.5 0 0 1 3.495 3.308l.005.192v24a3.5 3.5 0 0 1 -3.308 3.495l-.192.005h-21.5a1 1 0 0 1 -.117-1.993l.117-.007 1.042.001a.995.995 0 0 1 -.035-.17l-.007-.117v-9.214a3.5 3.5 0 0 1 3.308-3.495l.192-.005h1.5l.09.004.118.018.115.031.087.035.02.01a.97.97 0 0 1 .286.204l.084.098 2.2 2.933 2.2-2.933a1.01 1.01 0 0 1 .264-.244l.126-.068.105-.04.057-.017.1-.02.093-.01.055-.001h1.5a3.5 3.5 0 0 1 3.495 3.308l.005.192v9.214a1 1 0 0 1 -.042.287l4.542-.001a1.5 1.5 0 0 0 1.493-1.356l.007-.144v-24a1.5 1.5 0 0 0 -1.355-1.493l-.145-.007h-11.5a1 1 0 0 1 -.117-1.993l.117-.007zm-37.5 12a9 9 0 1 1 0 18 9 9 0 0 1 0-18zm25.8 9.6a1 1 0 0 1 -1.515.1l-.085-.1-2.701-3.601-.999.001a1.5 1.5 0 0 0 -1.493 1.356l-.007.144v9.214a1 1 0 0 1 -.042.287h12.084a.995.995 0 0 1 -.035-.17l-.007-.117v-9.214a1.5 1.5 0 0 0 -1.356-1.493l-.144-.007-.999-.001zm-25.8-7.6a7 7 0 1 0 0 14 7 7 0 0 0 0-14zm25-7 .21.005a4 4 0 1 1 -.41 0zm0 2a2 2 0 1 0 0 4 2 2 0 0 0 0-4zm-11-9a1 1 0 0 1 .117 1.993l-.117.007h-11.5a1.5 1.5 0 0 0 -1.493 1.356l-.007.144v5.214a1 1 0 0 1 -1.993.117l-.007-.117v-5.214a3.5 3.5 0 0 1 3.308-3.495l.192-.005z" fill="var(--db-icon-color, currentColor)" fill-rule="nonzero"/><path d="m43 26a1 1 0 0 1 .117 1.993l-.117.007h-1a1 1 0 0 1 -.117-1.993l.117-.007zm-8-26a3 3 0 1 1 0 6 3 3 0 0 1 0-6zm0 2a1 1 0 1 0 0 2 1 1 0 0 0 0-2z" fill="var(--db-icon-pulse-color, #EC0016)"/></g></svg>

<svg id="icon" height="64" viewBox="0 0 64 64" width="64" xmlns="http://www.w3.org/2000/svg"><g fill="none" fill-rule="evenodd" transform="translate(4 7)"><path d="M22 33a8 8 0 0 1 7.994 7.698L30 41v9a1 1 0 0 1-1.993.117L28 50v-9a6 6 0 0 0-5.442-5.974l-.297-.02-.122.072a14.764 14.764 0 0 1-6.705 1.91L14.99 37a14.752 14.752 0 0 1-7.129-1.922l-.123-.072-.186.01a6 6 0 0 0-5.548 5.76L2 41v9a1 1 0 0 1-1.993.117L0 50v-9a8 8 0 0 1 8-8 1 1 0 0 1 .52.145A12.736 12.736 0 0 0 14.99 35a12.752 12.752 0 0 0 6.49-1.855A1 1 0 0 1 22 33ZM52.5 2a3.5 3.5 0 0 1 3.495 3.308L56 5.5v24a3.5 3.5 0 0 1-3.308 3.495L52.5 33H31a1 1 0 0 1-.117-1.993L31 31l1.042.001a.995.995 0 0 1-.035-.17L32 30.714V21.5a3.5 3.5 0 0 1 3.308-3.495L35.5 18H37l.09.004.118.018.115.031.087.035.02.01a.97.97 0 0 1 .286.204l.084.098 2.2 2.933 2.2-2.933a1.01 1.01 0 0 1 .264-.244l.126-.068.105-.04.057-.017.1-.02.093-.01L43 18h1.5a3.5 3.5 0 0 1 3.495 3.308L48 21.5v9.214a1 1 0 0 1-.042.287L52.5 31a1.5 1.5 0 0 0 1.493-1.356L54 29.5v-24a1.5 1.5 0 0 0-1.355-1.493L52.5 4H41a1 1 0 0 1-.117-1.993L41 2h11.5ZM15 14a9 9 0 1 1 0 18 9 9 0 0 1 0-18Zm25.8 9.6a1 1 0 0 1-1.515.1l-.085-.1-2.701-3.601L35.5 20a1.5 1.5 0 0 0-1.493 1.356L34 21.5v9.214a1 1 0 0 1-.042.287h12.084a.995.995 0 0 1-.035-.17L46 30.714V21.5a1.5 1.5 0 0 0-1.356-1.493L44.5 20l-.999-.001L40.8 23.6ZM15 16a7 7 0 1 0 0 14 7 7 0 0 0 0-14Zm25-7 .21.005a4 4 0 1 1-.41 0L40 9Zm0 2a2 2 0 1 0 0 4 2 2 0 0 0 0-4ZM29 2a1 1 0 0 1 .117 1.993L29 4H17.5a1.5 1.5 0 0 0-1.493 1.356L16 5.5v5.214a1 1 0 0 1-1.993.117L14 10.714V5.5a3.5 3.5 0 0 1 3.308-3.495L17.5 2H29Z" fill="var(--db-icon-color, currentColor)" fill-rule="nonzero"/><path d="M43 26a1 1 0 0 1 .117 1.993L43 28h-1a1 1 0 0 1-.117-1.993L42 26h1ZM35 0a3 3 0 1 1 0 6 3 3 0 0 1 0-6Zm0 2a1 1 0 1 0 0 2 1 1 0 0 0 0-2Z" fill="var(--db-icon-pulse-color, #EC0016)"/></g></svg>
